X: 1679
T: Saydeyledi Bu Gönlümü...
C: Hacı Ârif Bey
O: Turkey
F: http://compmusic.upf.edu/node/140
N: hicaz--sarki--turkaksagi--saydeyledi_bu--haci_arif_bey
N: makam= hicaz
N: form= sarki
N: usul= turkaksagi = 5/8
M: 5/8
L: 1/16
K: C _7/8B ^f ^c 
Q: 1/4=114
%%MIDI tuningsystem comma53
G4 A6 | B2 c2dc BAG2  | A2AB c2d2 dc | cB BAA6  | 
w:  Sayd_ ey  |  le di  bu   |  gön  |  lü *  mü  *  bir   | 
eddc d4 e2 | d2 c=Bc4BA  | =B2Bc d2e2 =fe | \
w:  göz   |   |  göz *  *  le ri   | 
ed dcd6  | 
w:  â *  *  *  hû    | 
G4 A6 | B2 c2dc BAG2  | A2AB c2d2 dc | cB BAA6  | 
w:  Sayd_ ey  |  le di  bu   |  gön  |  lü *  mü  *  bir   | 
eddc d4 e2 | d2 c=Bc4BA  | =B2Bc d2e2 =fe | \
w:  göz   |   |  göz *  *  le ri   | 
ed dcd6  | 
w:  â *  *  *  hû    | 
eddc d4 dc | d2 e2=fe dcd2  | d2cB c2{d}cd cB | 
w:  Bend_ *  *  *  ey  |  le di  zen  |  cî  | 
d2 d2dc BABc  | cBBA A6 | cd eg=fe dcBA  | 
w:  re  be ni   |  sün  |   | 
dcBc BAA2 A2 | A4GA Bcd2  | eddc d4 dc | 
w:  bül_ *  i  *  gî  |  sû   SAZ  |  Bend_ *  *  *  ey  | 
d2 e2=fe dcd2  | d2cB c2{d}cd cB | d2 d2dc BABc  | 
w:  le di  zen  |  cî  |  re  be ni   | 
cBBA A6 | cd eg=fe dcBA  | dcBc BAA2 A2 | 
w:  sün  |   |  bül_ *  i  *  gî  | 
A4e6  | d3e e6 | e2 =f^ge2 a4  | =ba^g=f efga ag | \
w:  sû   SAZ  |  Bil *  mem   |  ki  ne  *  sihr_  |  ey  | 
^g=f fee6  | 
w:  le *  di  *  ol   | 
ed=cd efga ag | g=f feed d=cc2  | =B=cd=f edcB AB | 
w:  gam   |   |  gam *  *  *  ze_ *  i   | 
=c=B A^GA6  | eddc d2e2 f2 | g2 a2ag =fed2  | \
w:  câ *  *  *  dû    |  Sap *  *  *  lan  |  dı  ci ğer  | 
=c2de ced2 dc | 
w:  gâ  | 
=c_1/4B BAA6  | eddc d4 e2 | d2 c=Bc4BA  | \
w:  hı *  ma  *  dek   |  han   |   | 
=BcBc d2e2 =fe | 
w:  han *  *  *  çer_ i   | 
ed dcd6  | eddc d4 dc | d2 e2=fe dcd2  | \
w:  eb *  *  *  rû    |  Bend_ *  *  *  ey  |  le di  zen  | 
d2cB c2{d}cd cB | 
w:  cî  | 
d2 d2dc BABc  | cBBA A6 | cd eg=fe dcBA  | 
w:  re  be ni   |  sün  |   | 
dcBc BAA2 A2 | A4GA Bcd2  | eddc d4 dc | 
w:  bül_ *  i  *  gî  |  sû   SAZ  |  Bend_ *  *  *  ey  | 
d2 e2=fe dcd2  | d2cB c2{d}cd cB | d2 d2dc BABc  | 
w:  le di  zen  |  cî  |  re  be ni   | 
cBBA A6 | cd eg=fe dcBA  | dcBc BAA2 A2 | 
w:  sün  |   |  bül_ *  i  *  gî  | 
A4|
w:  sû    | 


